assets/icons/static_dynamic_events/skipad.svg

<svg fill="none" height="42" viewBox="0 0 50 42" width="50" xmlns="http://www.w3.org/2000/svg" xmlns:xlink="http://www.w3.org/1999/xlink"><clipPath id="a"><path d="m0 0h50v42h-50z"/></clipPath><g clip-path="url(#a)"><path d="m28.55 41.9911c-4.5917 0-9.1834-.0206-13.7749.0084-2.3303-.0021-4.6253-.5819-6.68911-1.6896-2.42111-1.2604-4.42768-3.2204-5.77096-5.6372-.94247-1.6539-1.619837-3.4518-2.00633-5.3253-.2107856-1.0131-.31429398-2.0464-.30873134-3.0822.00598104-5.463-.00167322-10.9261.00501967-16.38906-.02221983-2.20756.49446067-4.38586 1.50314167-6.33716.58163-1.22252 1.54021-2.21502 2.72774-2.82426 1.06851-.509928 2.23962-.754134 3.41784-.71270892 1.11935.01213012 2.22228.27712892 3.22999.77607192 1.0266.541707 1.8845 1.366777 2.4768 2.381837.7945 1.30431 1.3348 2.75373 1.5912 4.26828.146.84322.214 1.69863.2033 2.55491-.0044 2.80119-.0109 5.60249.0016 8.40359.0018 1.8148.4662 3.5977 1.3473 5.1724.1178.2062.2521.4021.4013.5857.1459.2159.363.3707.6114.436s.5115.0368.741-.0804c.3611-.1373.6795-.3714.9219-.6779 1.2952-1.5933 2.3928-3.3448 3.2677-5.2142.4768-1.1556 1.083-2.2506 1.8064-3.2632.4873-.6365 1.0078-1.2456 1.5593-1.8246.7201-.7414 1.6551-1.2245 2.6654-1.3773 1.8324-.3496 3.726.0342 5.29 1.0723.8081.5599 1.505 1.2719 2.0536 2.0981 1.0837 1.4676 1.8378 3.1618 2.2086 4.9619.434 2.1129 1.5087 4.0315 3.0708 5.4822.4075.3788.8482.7186 1.3164 1.015.861.5794 1.7601 1.1005 2.6102 1.6955 2.001 1.3384 3.5661 3.2579 4.495 5.5125.3946.9165.5455 1.9235.4373 2.919-.1582 1.2175-.7479 2.333-1.6571 3.1345-1.1341 1.0298-2.5511 1.6759-4.0575 1.8501-.5271.0706-1.0583.1047-1.59.1024-4.7018.0076-9.4037.009-14.1056.0044zm.0084-4.4627c4.6633 0 9.3266-.0001 13.99-.0002.2011 0 .4026.0068.603-.0057.6974-.0153 1.3784-.2194 1.9738-.5915.5331-.3561.6223-.5991.3954-1.2006-.4911-1.2675-1.3208-2.3677-2.3942-3.1749-.6784-.5294-1.4296-.9603-2.1414-1.4455-.7817-.5328-1.5931-1.0293-2.3251-1.6269-1.3829-1.1616-2.5368-2.5823-3.4001-4.1861-.6544-1.1259-1.1206-2.3559-1.3792-3.639-.2671-1.4125-.8435-2.7446-1.6859-3.8962-.2992-.4461-.7117-.8002-1.1929-1.024-.4813-.2238-1.0132-.3088-1.5382-.2459-.2872.0151-.5585.1396-.7605.3491-.561.5635-1.0439 1.203-1.4352 1.9008-.3677.6687-.6659 1.3772-1 2.0655-.9411 1.894-2.058 3.6909-3.3352 5.3659-.634.9045-1.4618 1.6485-2.4201 2.175-.8156.4702-1.7346.7203-2.6707.7268-.936.0066-1.8583-.2307-2.6801-.6894-.9492-.5497-1.7327-1.3556-2.2651-2.3298-1.3741-2.3019-2.0983-4.9486-2.0921-7.6463-.0102-2.9076.003-5.8153-.0045-8.72289.0205-1.47647-.3736-2.92791-1.13547-4.18171-.20787-.38029-.53876-.67448-.93568-.83194-.52087-.19164-1.07727-.26045-1.62773-.2013-.32955-.00578-.65457.0791-.94114.24579s-.52418.40908-.68802.70186c-.06158.12412-.13723.24101-.19741.36579-.61856 1.29245-.9336 2.71497-.92001 4.15415.00265 5.30405.01947 10.60835-.00974 15.91225-.00494 1.6554.30359 3.296.90854 4.8312.56706 1.5105 1.43921 2.8815 2.55941 4.0234.87122.8489 1.89058 1.5225 3.00495 1.9859 1.2365.5595 2.5738.8473 3.9257.8448 4.6049-.0221 9.2099-.0084 13.8149-.0084zm-3.6813-17.8883c-.033-.0342-.0699-.0641-.11-.0891-.1704-.0805-.3455-.1506-.5149-.2329-.1147-.0557-.1764-.0223-.2272.0915-.0912.2197-.1944.434-.309.6418-.5593.9545-1.1243 1.9054-1.6952 2.8527-.078.1294-.0885.2007.0506.2818.1453.0872.2848.1842.4175.2903.0991.0772.1652.0737.2375-.0361.7894-1.1587 1.4877-2.3796 2.0884-3.6514.019-.0418.0357-.0848.0623-.1486zm-7.1986 7.6477c.5321-.0012 1.0596-.1013 1.5568-.2955.1237-.051.1649-.1041.0993-.2351-.0736-.1478-.1379-.3003-.1923-.4565-.0535-.1527-.1231-.1739-.2779-.1203-.5394.2344-1.1375.2878-1.7085.1525-.5709-.1353-1.0852-.4523-1.4691-.9056-.0895-.1-.1553-.0878-.2431-.0083-.1262.1141-.254.2276-.3893.3301-.1261.0955-.1167.1724-.0161.2871.3277.389.7327.7019 1.188.9177.4554.2159.9505.3297 1.4522.3339zm-15.84299-18.96642c-.01069.18456-.00166.1977.15366.21851.15429.02066.31086.02765.46336.05723.17184.03333.23604-.02104.26125-.2051.15243-1.21996.50908-2.40391 1.05431-3.49986.18196-.35722.18698-.36268-.1439-.56662-.45988-.28346-.36885-.33572-.6319.16887-.60137 1.19654-.9929 2.49185-1.15678 3.82697zm27.97699 5.46832c-.2745.0248-.5069.0421-.7385.0673-.4783.0489-.9423.1948-1.3649.4293-.4227.2345-.7954.5529-1.0965.9365-.0147.0301-.0216.0635-.0202.0971.0014.0335.0111.0662.0283.0949.1272.1402.2779.2579.4105.3936.0915.0937.1603.086.2399-.0101.0584-.0705.1279-.1313.1897-.1991.3848-.428.8966-.7142 1.4562-.8144.536-.1028 1.0853-.1088 1.6233-.0176.1444.0244.2177-.0041.2376-.1638.0213-.1704.0603-.3387.0973-.5065.0274-.1243-.0107-.1864-.1385-.1999-.3215-.034-.6425-.0742-.9242-.1073zm17.8588 20.3068c-.0262-.0669-.0566-.132-.0909-.1948-.3251-.564-.6808-1.1088-1.0653-1.6321-.4724-.584-1.0291-1.0963-1.5492-1.6398-.1067-.1116-.1926-.1-.2805.0312-.0878.1313-.1849.2558-.2905.3725-.1105.1216-.0931.2003.0304.304.5668.4646 1.0722 1.0026 1.5036 1.6005.3206.4556.6011.9408.8976 1.4141.0489.078.078.1758.2025.1122.1852-.0947.3738-.1825.5584-.2785.0348-.018.0575-.0603.0839-.0893zm-6.612-6.0581c-.0466-.0443-.0891-.0883-.1352-.1277-.4132-.3186-.8087-.6607-1.1845-1.0246-.526-.564-1.0008-1.1785-1.4889-1.7787-.095-.1168-.162-.1698-.2951-.0599-.1329.1059-.2721.2032-.4167.2915-.1102.07-.1102.1381-.0384.2409.7571 1.1193 1.684 2.1078 2.7455 2.9281.3458.2599.3502.2538.587-.1158.0709-.1105.1415-.2213.2263-.3538zm-4.6704-7.1082c-.0095-.0743-.0108-.101-.0165-.1268-.3105-1.4189-.8661-2.7695-1.6406-3.9883-.0602-.0957-.1228-.0985-.208-.0369-.1479.107-.296.2145-.4503.3112-.116.0727-.1197.143-.0502.2577.1772.2925.3533.5868.5096.8911.4501.8593.7791 1.7794.9774 2.7331.0292.145.0866.204.2388.1613.168-.0472.3433-.0666.5123-.1109.048-.0217.0913-.0527.1275-.0915zm-28.66913-19.14322c-.08785 0-.15976.00608-.23036-.0012-.17099-.01762-.23787.05404-.21682.22998.01493.12471.01101.25181.01661.37779.01222.2747.01273.26931.28715.28102.60163-.0278 1.20176.08191 1.7568.32117.55505.23926 1.05105.60205 1.45205 1.06204.0285.01653.0606.02555.0934.02625.0327.0007.0652-.00695.0943-.02226.1557-.10693.2955-.23761.4462-.35247.0953-.07255.1056-.14282.0212-.2274-.2227-.24909-.4601-.48403-.7109-.7035-.88009-.63873-1.93082-.98485-3.00963-.99142zm3.94193 38.05852c.0699-.2647.1166-.4774.1836-.6832.0481-.1482.0108-.2059-.1347-.2543-.4854-.1422-.9619-.3148-1.4267-.5166-.71402-.3417-1.40419-.7363-2.09835-1.1201-.1318-.0729-.20299-.0741-.27839.0623-.0718.1338-.15481.2609-.24811.38-.11927.1481-.08126.2284.06798.3244.74345.4848 1.52957.8973 2.34807 1.2323.5107.2052 1.0344.3764 1.5866.5752zm1.7577-29.3576.0406-.0027c-.048-.77295-.099-1.54575-.1417-2.31905-.0095-.1723-.0786-.21696-.235-.1818-.1455.03275-.293.05585-.4414.06915-.168.01497-.2082.09381-.194.26252.0439.52094.0873 1.04317.0975 1.56558.0159.8151.0072 1.6309.0018 2.4463-.001.1522.0425.2187.198.2086.1552-.0101.3108-.0101.4661 0 .1617.0105.213-.0554.211-.2189-.0072-.6098-.0029-1.2198-.0029-1.8297zm29.778 29.753c.5347-.0946 1.0751-.1639 1.6026-.29.7726-.1859 1.4958-.5436 2.1181-1.0478.1244-.0997.1493-.1768.0279-.2986-.1246-.1248-.2255-.2747-.3518-.3974-.0271-.0192-.0585-.0312-.0913-.0347-.0328-.0036-.0659.0014-.0963.0144-.9751.7428-2.1611 1.1379-3.3765 1.1249-.3744.0109-.3549-.0511-.355.3671-.0001.5314-.0001.5314.5223.5621zm-40.02283-10.0808c-.21801.0673-.38929.1325-.56609.1714-.1939.0426-.21549.143-.14818.3123.25879.6508.48229 1.3185.77643 1.9519.29135.6274.65359 1.2202.98079 1.8304.07547.1407.15411.1515.2747.0544.12168-.0994.25083-.1889.38625-.2675.14877-.0849.1295-.1674.05474-.3018-.33001-.5931-.67589-1.1797-.96111-1.7953-.26852-.5797-.46726-1.1931-.69967-1.7905-.0277-.058-.06045-.1133-.09786-.1653zm10.24823-11.761c0-.4588-.0044-.8038.0022-1.1488.0027-.1432-.0428-.208-.1892-.2006-.1618.0096-.3241.0093-.4859-.0008-.1587-.0113-.1994.0587-.1973.2092.0076.5506-.0039 1.1016.0098 1.652.0314.8555.1487 1.7055.35 2.5365.0367.1602.1072.1901.2458.1466.1349-.0475.2732-.0841.4137-.1095.1936-.028.2206-.1209.1769-.3014-.2296-.9087-.3392-1.8447-.326-2.7832zm-11.67245 5.9742c0 .6828.00402 1.3656-.00293 2.0483-.00168.1646.05143.2286.2123.2172.14218-.0108.28495-.0107.42712.0003.17825.0148.23801-.0541.2361-.2382-.0079-.7622-.00325-1.5246-.00325-2.2869 0-.5899-.00491-1.18.00288-1.7698.00231-.1755-.05915-.2393-.22682-.227-.14217.0111-.28496.011-.42712-.0002-.17186-.0144-.22361.0549-.22158.2279.00798.676.00329 1.3522.0033 2.0284zm34.28385 15.829c.6671 0 1.3343-.0031 2.0013.0024.1558.0013.2282-.0464.2154-.2162-.0114-.1454-.0113-.2916.0003-.4371.015-.18-.0462-.2437-.2282-.2413-.6799.0092-1.3601.0037-2.0402.0037-.6477 0-1.2954.0035-1.9431-.0025-.1548-.0015-.2306.0418-.2158.2132.0107.125.0019.2518.002.3777.0002.2994.0003.3.2846.3001.6412.0004 1.2825.0004 1.9237 0zm-8.8321.0002c.648 0 1.296-.0001 1.944-.0002.2745-.0001.2746-.0008.275-.29.0002-.1326-.0078-.2658.0018-.3978.0118-.1609-.058-.2152-.2057-.2018-.0771.007-.1554.0011-.2332.0011-1.2571 0-2.5142.0024-3.7713-.0029-.1565-.0007-.2263.0402-.2128.2107.0122.1521.0122.305-.0001.4572-.0142.1746.0479.2295.2195.2272.6608-.0089 1.3218-.0036 1.9828-.0035zm-24.58261-24.8561c0-.6837-.00284-1.3675.0022-2.0511.00112-.1541-.05147-.2174-.20407-.2094-.16819.0088-.33722.0054-.50575.0014-.11509-.0027-.16234.0461-.16219.1652.00177 1.394.00163 2.788-.00042 4.182-.00019.1189.0433.1698.15955.1669.15558-.0039.31197-.01.46674.002.18248.0141.25098-.0491.24805-.2457-.01018-.6703-.00392-1.3408-.00411-2.0113zm15.74481 24.8559c.6669 0 1.3338-.0035 2.0006.0026.1555.0015.2284-.0435.216-.2133-.0118-.1454-.0117-.2916.0005-.437.0182-.1944-.0574-.2459-.2421-.2447-1.1783.0076-2.3567.0025-3.535.0051-.1986.0004-.4803-.0588-.5739.0475-.1069.1214-.0404.3978-.0603.6058-.0176.1851.0554.2399.2325.2376.6538-.0087 1.3078-.0035 1.9617-.0036z" fill="#525252"/></g></svg>

<svg width="50" height="42" viewBox="0 0 50 42" fill="none" xmlns="http://www.w3.org/2000/svg">
<g clip-path="url(#clip0_425_614)">
<path d="M28.55 41.9911C23.9583 41.9911 19.3666 41.9705 14.7751 41.9995C12.4448 41.9974 10.1498 41.4176 8.08599 40.3099C5.66488 39.0495 3.65831 37.0895 2.31503 34.6727C1.37256 33.0188 0.695193 31.2209 0.3087 29.3474C0.0979144 28.3343 -0.00559398 27.301 -3.13389e-05 26.2652C0.0059497 20.8022 -0.00170456 15.3391 0.00498833 9.87614C-0.0172315 7.66858 0.499449 5.49028 1.50813 3.53898C2.08976 2.31646 3.04834 1.32396 4.23587 0.71472C5.30438 0.204792 6.47549 -0.039414 7.65371 0.00201108C8.77306 0.0141412 9.87599 0.27914 10.8837 0.778083C11.9103 1.31979 12.7682 2.14486 13.3605 3.15992C14.155 4.46423 14.6953 5.91365 14.9517 7.4282C15.0977 8.27142 15.1657 9.12683 15.155 9.98311C15.1506 12.7843 15.1441 15.5856 15.1566 18.3867C15.1584 20.2015 15.6228 21.9844 16.5039 23.5591C16.6217 23.7653 16.756 23.9612 16.9052 24.1448C17.0511 24.3607 17.2682 24.5155 17.5166 24.5808C17.765 24.6461 18.0281 24.6176 18.2576 24.5004C18.6187 24.3631 18.9371 24.129 19.1795 23.8225C20.4747 22.2292 21.5723 20.4777 22.4472 18.6083C22.924 17.4527 23.5302 16.3577 24.2536 15.3451C24.7409 14.7086 25.2614 14.0995 25.8129 13.5205C26.533 12.7791 27.468 12.296 28.4783 12.1432C30.3107 11.7936 32.2043 12.1774 33.7683 13.2155C34.5764 13.7754 35.2733 14.4874 35.8219 15.3136C36.9056 16.7812 37.6597 18.4754 38.0305 20.2755C38.4645 22.3884 39.5392 24.307 41.1013 25.7577C41.5088 26.1365 41.9495 26.4763 42.4177 26.7727C43.2787 27.3521 44.1778 27.8732 45.0279 28.4682C47.0289 29.8066 48.594 31.7261 49.5229 33.9807C49.9175 34.8972 50.0684 35.9042 49.9602 36.8997C49.802 38.1172 49.2123 39.2327 48.3031 40.0342C47.169 41.064 45.752 41.7101 44.2456 41.8843C43.7185 41.9549 43.1873 41.989 42.6556 41.9867C37.9538 41.9943 33.2519 41.9957 28.55 41.9911ZM28.5584 37.5284C33.2217 37.5284 37.885 37.5283 42.5484 37.5282C42.7495 37.5282 42.951 37.535 43.1514 37.5225C43.8488 37.5072 44.5298 37.3031 45.1252 36.931C45.6583 36.5749 45.7475 36.3319 45.5206 35.7304C45.0295 34.4629 44.1998 33.3627 43.1264 32.5555C42.448 32.0261 41.6968 31.5952 40.985 31.11C40.2033 30.5772 39.3919 30.0807 38.6599 29.4831C37.277 28.3215 36.1231 26.9008 35.2598 25.297C34.6054 24.1711 34.1392 22.9411 33.8806 21.658C33.6135 20.2455 33.0371 18.9134 32.1947 17.7618C31.8955 17.3157 31.483 16.9616 31.0018 16.7378C30.5205 16.514 29.9886 16.429 29.4636 16.4919C29.1764 16.507 28.9051 16.6315 28.7031 16.841C28.1421 17.4045 27.6592 18.044 27.2679 18.7418C26.9002 19.4105 26.602 20.119 26.2679 20.8073C25.3268 22.7013 24.2099 24.4982 22.9327 26.1732C22.2987 27.0777 21.4709 27.8217 20.5126 28.3482C19.697 28.8184 18.778 29.0685 17.8419 29.075C16.9059 29.0816 15.9836 28.8443 15.1618 28.3856C14.2126 27.8359 13.4291 27.03 12.8967 26.0558C11.5226 23.7539 10.7984 21.1072 10.8046 18.4095C10.7944 15.5019 10.8076 12.5942 10.8001 9.68661C10.8206 8.21014 10.4265 6.7587 9.66463 5.5049C9.45676 5.12461 9.12587 4.83042 8.72895 4.67296C8.20808 4.48132 7.65168 4.41251 7.10122 4.47166C6.77167 4.46588 6.44665 4.55076 6.16008 4.71745C5.87351 4.88414 5.6359 5.12653 5.47206 5.41931C5.41048 5.54343 5.33483 5.66032 5.27465 5.7851C4.65609 7.07755 4.34105 8.50007 4.35464 9.93925C4.35729 15.2433 4.37411 20.5476 4.3449 25.8515C4.33996 27.5069 4.64849 29.1475 5.25344 30.6827C5.8205 32.1932 6.69265 33.5642 7.81285 34.7061C8.68407 35.555 9.70343 36.2286 10.8178 36.692C12.0543 37.2515 13.3916 37.5393 14.7435 37.5368C19.3484 37.5147 23.9534 37.5284 28.5584 37.5284ZM24.8771 19.6401C24.8441 19.6059 24.8072 19.576 24.7671 19.551C24.5967 19.4705 24.4216 19.4004 24.2522 19.3181C24.1375 19.2624 24.0758 19.2958 24.025 19.4096C23.9338 19.6293 23.8306 19.8436 23.716 20.0514C23.1567 21.0059 22.5917 21.9568 22.0208 22.9041C21.9428 23.0335 21.9323 23.1048 22.0714 23.1859C22.2167 23.2731 22.3562 23.3701 22.4889 23.4762C22.588 23.5534 22.6541 23.5499 22.7264 23.4401C23.5158 22.2814 24.2141 21.0605 24.8148 19.7887C24.8338 19.7469 24.8505 19.7039 24.8771 19.6401ZM17.6785 27.2878C18.2106 27.2866 18.7381 27.1865 19.2353 26.9923C19.359 26.9413 19.4002 26.8882 19.3346 26.7572C19.261 26.6094 19.1967 26.4569 19.1423 26.3007C19.0888 26.148 19.0192 26.1268 18.8644 26.1804C18.325 26.4148 17.7269 26.4682 17.1559 26.3329C16.585 26.1976 16.0707 25.8806 15.6868 25.4273C15.5973 25.3273 15.5315 25.3395 15.4437 25.419C15.3175 25.5331 15.1897 25.6466 15.0544 25.7491C14.9283 25.8446 14.9377 25.9215 15.0383 26.0362C15.366 26.4252 15.771 26.7381 16.2263 26.9539C16.6817 27.1698 17.1768 27.2836 17.6785 27.2878ZM1.83551 8.32138C1.82482 8.50594 1.83385 8.51908 1.98917 8.53989C2.14346 8.56055 2.30003 8.56754 2.45253 8.59712C2.62437 8.63045 2.68857 8.57608 2.71378 8.39202C2.86621 7.17206 3.22286 5.98811 3.76809 4.89216C3.95005 4.53494 3.95507 4.52948 3.62419 4.32554C3.16431 4.04208 3.25534 3.98982 2.99229 4.49441C2.39092 5.69095 1.99939 6.98626 1.83551 8.32138ZM29.8125 13.7897C29.538 13.8145 29.3056 13.8318 29.074 13.857C28.5957 13.9059 28.1317 14.0518 27.7091 14.2863C27.2864 14.5208 26.9137 14.8392 26.6126 15.2228C26.5979 15.2529 26.591 15.2863 26.5924 15.3199C26.5938 15.3534 26.6035 15.3861 26.6207 15.4148C26.7479 15.555 26.8986 15.6727 27.0312 15.8084C27.1227 15.9021 27.1915 15.8944 27.2711 15.7983C27.3295 15.7278 27.399 15.667 27.4608 15.5992C27.8456 15.1712 28.3574 14.885 28.917 14.7848C29.453 14.682 30.0023 14.676 30.5403 14.7672C30.6847 14.7916 30.758 14.7631 30.7779 14.6034C30.7992 14.433 30.8382 14.2647 30.8752 14.0969C30.9026 13.9726 30.8645 13.9105 30.7367 13.897C30.4152 13.863 30.0942 13.8228 29.8125 13.7897ZM47.6713 34.0965C47.6451 34.0296 47.6147 33.9645 47.5804 33.9017C47.2553 33.3377 46.8996 32.7929 46.5151 32.2696C46.0427 31.6856 45.486 31.1733 44.9659 30.6298C44.8592 30.5182 44.7733 30.5298 44.6854 30.661C44.5976 30.7923 44.5005 30.9168 44.3949 31.0335C44.2844 31.1551 44.3018 31.2338 44.4253 31.3375C44.9921 31.8021 45.4975 32.3401 45.9289 32.938C46.2495 33.3936 46.53 33.8788 46.8265 34.3521C46.8754 34.4301 46.9045 34.5279 47.029 34.4643C47.2142 34.3696 47.4028 34.2818 47.5874 34.1858C47.6222 34.1678 47.6449 34.1255 47.6713 34.0965ZM41.0593 28.0384C41.0127 27.9941 40.9702 27.9501 40.9241 27.9107C40.5109 27.5921 40.1154 27.25 39.7396 26.8861C39.2136 26.3221 38.7388 25.7076 38.2507 25.1074C38.1557 24.9906 38.0887 24.9376 37.9556 25.0475C37.8227 25.1534 37.6835 25.2507 37.5389 25.339C37.4287 25.409 37.4287 25.4771 37.5005 25.5799C38.2576 26.6992 39.1845 27.6877 40.246 28.508C40.5918 28.7679 40.5962 28.7618 40.833 28.3922C40.9039 28.2817 40.9745 28.1709 41.0593 28.0384ZM36.3889 20.9302C36.3794 20.8559 36.3781 20.8292 36.3724 20.8034C36.0619 19.3845 35.5063 18.0339 34.7318 16.8151C34.6716 16.7194 34.609 16.7166 34.5238 16.7782C34.3759 16.8852 34.2278 16.9927 34.0735 17.0894C33.9575 17.1621 33.9538 17.2324 34.0233 17.3471C34.2005 17.6396 34.3766 17.9339 34.5329 18.2382C34.983 19.0975 35.312 20.0176 35.5103 20.9713C35.5395 21.1163 35.5969 21.1753 35.7491 21.1326C35.9171 21.0854 36.0924 21.066 36.2614 21.0217C36.3094 21 36.3527 20.969 36.3889 20.9302ZM7.71977 1.78698C7.63192 1.78698 7.56001 1.79306 7.48941 1.78578C7.31842 1.76816 7.25154 1.83982 7.27259 2.01576C7.28752 2.14047 7.2836 2.26757 7.2892 2.39355C7.30142 2.66825 7.30193 2.66286 7.57635 2.67457C8.17798 2.64677 8.77811 2.75648 9.33315 2.99574C9.8882 3.235 10.3842 3.59779 10.7852 4.05778C10.8137 4.07431 10.8458 4.08333 10.8786 4.08403C10.9113 4.08473 10.9438 4.07708 10.9729 4.06177C11.1286 3.95484 11.2684 3.82416 11.4191 3.7093C11.5144 3.63675 11.5247 3.56648 11.4403 3.4819C11.2176 3.23281 10.9802 2.99787 10.7294 2.7784C9.84931 2.13967 8.79858 1.79355 7.71977 1.78698ZM11.6617 39.8455C11.7316 39.5808 11.7783 39.3681 11.8453 39.1623C11.8934 39.0141 11.8561 38.9564 11.7106 38.908C11.2252 38.7658 10.7487 38.5932 10.2839 38.3914C9.56988 38.0497 8.87971 37.6551 8.18555 37.2713C8.05375 37.1984 7.98256 37.1972 7.90716 37.3336C7.83536 37.4674 7.75235 37.5945 7.65905 37.7136C7.53978 37.8617 7.57779 37.942 7.72703 38.038C8.47048 38.5228 9.2566 38.9353 10.0751 39.2703C10.5858 39.4755 11.1095 39.6467 11.6617 39.8455ZM13.4194 10.4879L13.46 10.4852C13.412 9.71225 13.361 8.93945 13.3183 8.16615C13.3088 7.99385 13.2397 7.94919 13.0833 7.98435C12.9378 8.0171 12.7903 8.0402 12.6419 8.0535C12.4739 8.06847 12.4337 8.14731 12.4479 8.31602C12.4918 8.83696 12.5352 9.35919 12.5454 9.8816C12.5613 10.6967 12.5526 11.5125 12.5472 12.3279C12.5462 12.4801 12.5897 12.5466 12.7452 12.5365C12.9004 12.5264 13.056 12.5264 13.2113 12.5365C13.373 12.547 13.4243 12.4811 13.4223 12.3176C13.4151 11.7078 13.4194 11.0978 13.4194 10.4879ZM43.1974 40.2409C43.7321 40.1463 44.2725 40.077 44.8 39.9509C45.5726 39.765 46.2958 39.4073 46.9181 38.9031C47.0425 38.8034 47.0674 38.7263 46.946 38.6045C46.8214 38.4797 46.7205 38.3298 46.5942 38.2071C46.5671 38.1879 46.5357 38.1759 46.5029 38.1724C46.4701 38.1688 46.437 38.1738 46.4066 38.1868C45.4315 38.9296 44.2455 39.3247 43.0301 39.3117C42.6557 39.3226 42.6752 39.2606 42.6751 39.6788C42.675 40.2102 42.675 40.2102 43.1974 40.2409ZM3.17457 30.1601C2.95656 30.2274 2.78528 30.2926 2.60848 30.3315C2.41458 30.3741 2.39299 30.4745 2.4603 30.6438C2.71909 31.2946 2.94259 31.9623 3.23673 32.5957C3.52808 33.2231 3.89032 33.8159 4.21752 34.4261C4.29299 34.5668 4.37163 34.5776 4.49222 34.4805C4.6139 34.3811 4.74305 34.2916 4.87847 34.213C5.02724 34.1281 5.00797 34.0456 4.93321 33.9112C4.6032 33.3181 4.25732 32.7315 3.9721 32.1159C3.70358 31.5362 3.50484 30.9228 3.27243 30.3254C3.24473 30.2674 3.21198 30.2121 3.17457 30.1601ZM13.4228 18.3991C13.4228 17.9403 13.4184 17.5953 13.425 17.2503C13.4277 17.1071 13.3822 17.0423 13.2358 17.0497C13.074 17.0593 12.9117 17.059 12.7499 17.0489C12.5912 17.0376 12.5505 17.1076 12.5526 17.2581C12.5602 17.8087 12.5487 18.3597 12.5624 18.9101C12.5938 19.7656 12.7111 20.6156 12.9124 21.4466C12.9491 21.6068 13.0196 21.6367 13.1582 21.5932C13.2931 21.5457 13.4314 21.5091 13.5719 21.4837C13.7655 21.4557 13.7925 21.3628 13.7488 21.1823C13.5192 20.2736 13.4096 19.3376 13.4228 18.3991ZM1.75035 24.3733C1.75035 25.0561 1.75437 25.7389 1.74742 26.4216C1.74574 26.5862 1.79885 26.6502 1.95972 26.6388C2.1019 26.628 2.24467 26.6281 2.38684 26.6391C2.56509 26.6539 2.62485 26.585 2.62294 26.4009C2.61504 25.6387 2.61969 24.8763 2.61969 24.114C2.61969 23.5241 2.61478 22.934 2.62257 22.3442C2.62488 22.1687 2.56342 22.1049 2.39575 22.1172C2.25358 22.1283 2.11079 22.1282 1.96863 22.117C1.79677 22.1026 1.74502 22.1719 1.74705 22.3449C1.75503 23.0209 1.75034 23.6971 1.75035 24.3733ZM36.0342 40.2023C36.7013 40.2023 37.3685 40.1992 38.0355 40.2047C38.1913 40.206 38.2637 40.1583 38.2509 39.9885C38.2395 39.8431 38.2396 39.6969 38.2512 39.5514C38.2662 39.3714 38.205 39.3077 38.023 39.3101C37.3431 39.3193 36.6629 39.3138 35.9828 39.3138C35.3351 39.3138 34.6874 39.3173 34.0397 39.3113C33.8849 39.3098 33.8091 39.3531 33.8239 39.5245C33.8346 39.6495 33.8258 39.7763 33.8259 39.9022C33.8261 40.2016 33.8262 40.2022 34.1105 40.2023C34.7517 40.2027 35.393 40.2027 36.0342 40.2023ZM27.2021 40.2025C27.8501 40.2025 28.4981 40.2024 29.1461 40.2023C29.4206 40.2022 29.4207 40.2015 29.4211 39.9123C29.4213 39.7797 29.4133 39.6465 29.4229 39.5145C29.4347 39.3536 29.3649 39.2993 29.2172 39.3127C29.1401 39.3197 29.0618 39.3138 28.984 39.3138C27.7269 39.3138 26.4698 39.3162 25.2127 39.3109C25.0562 39.3102 24.9864 39.3511 24.9999 39.5216C25.0121 39.6737 25.0121 39.8266 24.9998 39.9788C24.9856 40.1534 25.0477 40.2083 25.2193 40.206C25.8801 40.1971 26.5411 40.2024 27.2021 40.2025ZM2.61949 15.3464C2.61949 14.6627 2.61665 13.9789 2.62169 13.2953C2.62281 13.1412 2.57022 13.0779 2.41762 13.0859C2.24943 13.0947 2.0804 13.0913 1.91187 13.0873C1.79678 13.0846 1.74953 13.1334 1.74968 13.2525C1.75145 14.6465 1.75131 16.0405 1.74926 17.4345C1.74907 17.5534 1.79256 17.6043 1.90881 17.6014C2.06439 17.5975 2.22078 17.5914 2.37555 17.6034C2.55803 17.6175 2.62653 17.5543 2.6236 17.3577C2.61342 16.6874 2.61968 16.0169 2.61949 15.3464ZM18.3643 40.2023C19.0312 40.2023 19.6981 40.1988 20.3649 40.2049C20.5204 40.2064 20.5933 40.1614 20.5809 39.9916C20.5691 39.8462 20.5692 39.7 20.5814 39.5546C20.5996 39.3602 20.524 39.3087 20.3393 39.3099C19.161 39.3175 17.9826 39.3124 16.8043 39.315C16.6057 39.3154 16.324 39.2562 16.2304 39.3625C16.1235 39.4839 16.19 39.7603 16.1701 39.9683C16.1525 40.1534 16.2255 40.2082 16.4026 40.2059C17.0564 40.1972 17.7104 40.2024 18.3643 40.2023Z" fill="#525252"/>
</g>
<defs>
<clipPath id="clip0_425_614">
<rect width="50" height="42" fill="white"/>
</clipPath>
</defs>
</svg>
